X:282
T:Wee Murdie 
C:Joe Buchanan's Scottish Tome - Page 322.3
I:322 3
R:Jig
Z:Carl Allison
L:1/8
M:6/8
K:D
d/e/ | fdd edd | fdd e2 d | Bee e2 d | Bee ede | fdd edd | fdd e2 d | Bdd d2 B | Add d2 :|
g | fag efg |fga e2 d | Bee e2 d | Bee ede | faa efg |fga fed | Bdd d2 B |  Add d2 :|

